X:24
T:Bourree piquee de Reuilly
Z:Jack Campin, 2014
F:http://www.campin.me.uk/Music/YoupNannetteD.abc
S:p31, p1000220.jpg
M:3/8
L:1/8
Q:1/4=120
K:G
D|DEF|G2A|   G/F/ED|G3 |\
  EFG|A2B|   A/G/FE|D2:|
D|B2A|GFE|   A2   G|FED|\
  F2E|DEF|[1 GA>^A |B2:|\
          [2 GB>A  |G2|]

